X:1
T:Donne Secours, 11.10.11.10
T:Genevan Psalter, 1551
T:Donne Secours, 11.10.11.10
T:Public Domain
C:Genevan Psalter, 1551
Z:Public Domain
%%score ( 1 2 ) ( 3 4 )
L:1/8
M:4/4
K:F
V:1 treble 
V:2 treble 
V:3 bass 
V:4 bass 
V:1
 [CFA]2 [DF][EG] [FA]2 [Ac]2 | [EA][DF][DG][DF] D^C D2 | [DFA]2 [DFA]G [FA]2 [Fd]2 | %3
 [DFA][FAd] [EAc]2 ED [^CEA]2 | [A,D]2 [DF][=B,F] [CE]2 [B,D]2 | %5
 [CFA][CFA][DG][CE] [A,DF]2 [^CE]2 | [CFA]2 [CGc][CEA] [DF]2 [B,DG]2 | %7
 [CFA]D [DF]2 [^CE]2 [A,D]2 |] %8
V:2
 x8 | x4 E2 D2 | x8 | x4 [^G=B]2 x2 | x8 | x8 | x8 | x8 |] %8
V:3
 [F,A,]2 [D,A,][C,C] [F,C]2 [A,,E]2 | [C,C][D,A,][G,,B,][D,A,] [A,,A,]2 [D,F,A,]2 | %2
 [D,F,A,]2 [D,A,][E,C] [F,A,C]2 [D,A,D]2 | [D,A,][=B,,A,]C,D, E,2 [A,,E,]2 | %4
 [D,F,]2 [D,A,][D,F,] [C,G,]2 [G,,G,]2 | [F,,A,][A,,F,][B,,B,][C,G,] [D,F,][F,A,] A,2 | %6
 [F,A,]2 [E,G,][C,A,] [D,A,]2 [B,,G,]2 | [F,,F,][B,,F,]F,G, A,G, [D,,D,F,]2 |] %8
V:4
 x8 | x8 | x8 | x2 A,2 E,2 x2 | x8 | x6 A,2 | x8 | x2 A,,2 A,,2 x2 |] %8

